X:1
T:Are You Ready for the Coming?
T:Are You Ready for the Coming?
T:Charles Hutchinson Gabriel
T:Ada Ruth Habershon, 1907
T:Public Domain Courtesy of the Cyber Hymnal™
T:Public Domain Courtesy of the Cyber Hymnal™
C:Charles Hutchinson Gabriel
Z:Public Domain
Z:Courtesy of the Cyber Hymnal™
%%score ( 1 2 ) ( 3 4 )
L:1/8
Q:1/4=105
M:4/4
K:Db
V:1 treble 
V:2 treble 
V:3 bass 
V:4 bass 
V:1
 [DF][EG] | [FA][FA][FA][GB] [FA][DF][CE]D | [DB]2 [DB]2 [Gd]2 [Ac][GB] | %3
w: 1.~Are you|read- y for the com- ing of the|Lord from Heav’n? Are you|
w: 2.~If He|came to call His peo- ple would you|be dis- mayed? Though your|
w: 3.~To this|world with all its plea- sures are you|root- ed fast? Would a|
w: 4.~Are you|bu- sy in His serv- ice though your|heart is cold? Are there|
 [FA][FA][FA][GB] [FA][DF][DE]D | [DF]2 [CE]2 [CE]2 [DF][EG] | [FA][FA][FA][GB] [FA][DF][CE]D | %6
w: rest- ing in the prom- ise which to|us is giv’n? Does your|heart leap up with rap- ture as you|
w: sins have been for- giv- en would you|be a- fraid? Would you|be a- shamed to meet Him if He|
w: call to leave it quick- ly be a|wrench at last? When He|views your fin- ished life work will you|
w: pre- cious earth- ly trea- sures which you|fond- ly hold? Would He|find you do- ing on- ly what He|
 [DB]2 [DB]2 [Gd]2 [Ac][GB] | [FA][FA][EA][EB] [Ec][Ec][Ee][Fd] | [Ec]2 [DB]2 [CA]2 || %9
w: know He’s near? Or do|thoughts of His ap- pear- ing fill your|heart with fear?|
w: came to- day? From the|pre- sence of the Mas- ter would you|shrink a- way?|
w: suf- fer loss? Will you|find that you have ga- thered on- ly|worth- less dross?|
w: could ap- prove? Would He|find you watch- ing, wait- ing for the|One you love?|
"^Refrain" [DF][EG] | [FA]<[Fd-] d6 [Fe][Fd] | [Ac]<[GB-] B4 [=Ge][Gd] | %12
w: |||
w: Are you|read- y, * Are you|read- y, * Are you|
w: |||
w: |||
 [Gc]<[Gc] [Gc]>[GB] [FA]2 [EG]2 | F4 !fermata![CA]2 [DF][EG] | [FA]<[Fd-] d4 [Fe][Fd] | %15
w: |||
w: read- y for the open- ing|skies? Are you read-|* y, * Are you|
w: |||
w: |||
 [Ac]<([GB-] B4) [=Ge][Gd] | [Gc]<[Gc] [Gc]>[GA] [Af]2 [Ge]2 | z2 x8 |] %18
w: |||
w: read- y, * Are you|read- y for that glad- surprise?||
w: |||
w: |||
V:2
 x2 | x7 D | x8 | x7 D | x8 | x7 D | x8 | x8 | x6 || x2 | x2 (F>FF<F) x4 | x2 (=G>GG<G) x2 | x8 | %13
 D2 =B,B, x4 | x2 (F>FF<F) x2 | x2 (=G>GG<G) x2 | x8 | F6 G2 F2 |] %18
V:3
 [D,A,][D,A,] | [D,D][D,D][D,D][D,D] [D,D][D,A,][E,A,][F,A,] | G,2 G,2 [G,B,]2 [G,C][G,D] | %3
w: ~ ~|~ ~ ~ ~ ~ ~ ~ ~|~ ~ ~ ~ ~|
 [D,D][D,D][D,D][D,D] [D,D][D,A,][D,G,][D,F,] | [A,,A,]2 [A,,A,]2 [A,,A,]2 [D,A,][D,A,] | %5
w: ~ ~ ~ ~ ~ ~ ~ ~|~ ~ ~ ~ ~|
 [D,D][D,D][D,D][D,D] [D,D][D,A,][E,A,][F,A,] | G,2 G,2 [G,B,]2 [G,C][G,D] | %7
w: ~ ~ ~ ~ ~ ~ ~ ~|~ ~ ~ ~ ~|
 [D,D][D,D][C,A,][E,=G,] A,A,[C,A,][D,A,] | [E,A,]2 [E,=G,]2 [A,,A,]2 || [D,A,][D,A,] | %10
w: ~ ~ ~ ~ ~ ~ ~ ~|~ ~ ~|~ ~|
 [D,A,]<[D,A,] [D,A,]>[D,A,] [D,A,]<[D,A,] [D,A,][D,D] x2 | %11
w: ~ ~ I am read- y, ~ ~|
 [G,D]<[G,D] [G,D]>[G,D] [G,D]<[G,D] [E,D][E,E] | [A,E]<[A,E] [A,E]>[A,C] [A,D]2 A,2 | %13
w: ~ ~ I am read- y, ~ ~|~ ~ ~ ~ ~ ~|
 A,4- !fermata![E,A,]2 [_D,A,][D,A,] | [D,A,]<[D,A,] [D,A,]>[D,A,] [D,A,]<[D,A,] [F,A,][A,D] | %15
w: ~ open- ing~skies ~|~ ~ ~ I am read- y, ~|
 [G,D]<[G,D] [G,D]>[G,D] [G,D]<[G,D] [E,D][E,E] | [A,E]<[A,E] [A,E]>[A,C] [A,D]2 (CA,) | %17
w: ~ ~ ~ ~ I am read- y,|~ ~ ~ ~ ~ ~ *|
 z2 B,2 A,2 x4 |] %18
w: ~ ~|
V:4
 x2 | x8 | G,2 G,2 x4 | x8 | x8 | x8 | G,2 G,2 x4 | x4 A,A, x2 | x6 || x2 | x10 | x8 | x6 A,2 | %13
 D,2 =D,D, x4 | x8 | x8 | x6 A,2 | [D,A,]6 x4 |] %18

